X:1
T:Title
%%score { ( 1 3 ) | 2 }
L:1/8
M:3/4
K:Bb
V:1 treble nm="Grand Piano"
V:3 treble 
V:2 bass 
V:1
 z2 z2[Q:1/4=100] [B,D]>[CE] | [DF]3 [Fd] [EF]>[Ec] | [DB]4 [FB]>[FA] | [EG]3 [GB] [^Fc]>[FB] | %4
[M:2/4] [DF]4 |[M:1/4] [B,D]>[CE] |[M:3/4] [DF]3 [Fd] [^Fd]>[Ac] | B4 A>G | %8
 [=Ec]3 [DEB] [CEA]>[B,EG] |[M:2/4] F4 |[M:1/4] F>F |[M:3/4] e3 c G>A | [B,DB]4 D>D | %13
 [DG]3 [EB] [=Ec]>[Ed] |[M:2/4] c4 |[M:1/4] [FB]>[Fc] |[M:3/4] [Fd]3 B cd | e4 A>G | %18
[M:13/16] F/-F/-F-<FDFc3/2 |[M:3/4] [DB]6 |] %20
V:2
 z2 z2 [B,,F,]>[B,,F,] | [B,,B,]3 [B,,B,] [F,A,]>[F,A,] | [B,,F,]4 [D,B,]>[D,B,] | %3
 [E,B,]3 [E,B,] [E,B,]>[E,B,] |[M:2/4] [B,,B,]4 |[M:1/4] [B,,F,]>[B,,F,] | %6
[M:3/4] [B,,B,]3 [B,,B,] [D,A,]>[^F,D] | [G,DG]4 [G,CD]>[K:bass][G,B,D] | [C,B,]3 C, C,>C, | %9
[M:2/4] [F,A,]4 |[M:1/4] [F,A,]>[F,A,] |[M:3/4] [F,CF]3 [F,A,E] [F,B,E]>[F,CE] | B,,4 D,>[C,^F,] | %13
 [B,,G,]3 [G,,G,] [C,G,]>[C,B,] |[M:2/4] [F,A,F]4 |[M:1/4] [D,B,]>[C,A,] | %16
[M:3/4] [B,,B,]3[K:treble] [B,DF] [A,CF][_A,B,F] | [G,B,E]4 [=E,B,_D]>[E,B,D] | %18
[M:13/16] [F,B,D]/-[F,B,D]/-[F,B,D]-<[F,B,D][F,B,][F,A,E][F,A,E]3/2 |[M:3/4] [B,,F,B,]6 |] %20
V:3
 x6 | x6 | x6 | x6 |[M:2/4] x4 |[M:1/4] x2 |[M:3/4] x6 | x6 | x6 |[M:2/4] x4 |[M:1/4] x2 | %11
[M:3/4] x6 | x6 | x6 |[M:2/4] z2 z E, |[M:1/4] x2 |[M:3/4] x6 | x6 |[M:13/16] x13/2 |[M:3/4] x6 |] %20

